!!!OTL: 1987. Gloria in excelsis Deo, / deutsch von Nic. Decius (1526).
!!!ARE: Europa, Mitteleuropa, Deutschland
!!!SCT: E1987A
!!!YEM: Copyright 1995, estate of Helmut Schaffrath.
**kern
*ICvox
*M4/4
*met(c)
*k[f#]
*G:
!LO:TX:a:t=Heutige Choralform.
{4g
=1
4b
4cc
4dd
4cc
=2
4b/
4a
4b/;}
{4b
=3
4b
4a
8ccL
8bJ
4a
=4
(4g
4f#)
4g;}
{4g
=5
4b
4cc
4dd
4cc
=6
4b/
4a
4b/;}
{4b
=7
4b
4a
8ccL
8bJ
4a
=8
(4g
4f#)
4g;}
{4g
=9
4a
4b
4cc
4b
=10
4a
4g#
4a;}
{4a
=11
4b
4cc
4dd
4cc
=12
4b
4a
4b;}
{4b
=13
4b
4a
8ccL
8bJ
4a
=14
(4g
4f#)
4g;}
==
!!!AGN: geistlich, Dank -, Lob - Lied, Choral
!!!ONB: ESAC (Essen Associative Code) Database: ERK3
!!!AMT: simple quadruple
!!!AIN: vox
!!!EED: Helmut Schaffrath
!!!EEV: 1.0
!!!GTL: Geistliche Lieder. 2. Gottesglaube und Gottesverehrung in Liedern: Bitt-, Lob-, Dank- und Trostlieder, nebst einigen Lehrgesaengen.
!!!URL-scan: https://rosdok.uni-rostock.de/mcrviewer/recordIdentifier/rosdok_ppn745177999/iview2/phys_0698.iview2?x=188.96815741118007&y=646.4674508064054&scale=0.7014306698522891&rotation=0&layout=singlePageLayout
!!!ENC: Anna Maria Matuszewska
!!!EEV: 2025/10/01
*-
